docs/icons/typescript.svg

<svg width="128" height="128" viewBox="0 0 128 128" fill="none" xmlns="http://www.w3.org/2000/svg">
 
<path d="M22.0385 41.5845L22 46.5485H29.8885L37.7769 46.5485L37.7769 68.9633V91.3781H43.3566H48.9362V68.9633L48.9362 46.5485H56.8247H64.7131V41.6807C64.7131 38.9871 64.6554 36.736 64.5785 36.6783C64.5207 36.6013 54.9199 36.5629 43.2796 36.5821L22.0962 36.6398L22.0385 41.5845Z" fill="white"/>
<path d="M93.0407 36.4989C96.1191 37.2685 98.4664 38.6346 100.621 40.8664C101.737 42.0593 103.392 44.2335 103.527 44.7529C103.565 44.9069 98.2932 48.447 95.0994 50.4288C94.9839 50.5057 94.5222 50.0055 94.0027 49.2359C92.4442 46.9656 90.8088 45.9843 88.3076 45.8111C84.6327 45.561 82.2662 47.485 82.2854 50.6981C82.2854 51.6409 82.4201 52.1989 82.8049 52.9685C83.613 54.6424 85.1137 55.6429 89.8276 57.6823C98.5049 61.4149 102.218 63.8776 104.527 67.3794C107.105 71.2851 107.682 77.5189 105.932 82.1558C104.008 87.1967 99.236 90.6215 92.5212 91.7566C90.4433 92.1222 85.5178 92.0645 83.2859 91.6604C78.4182 90.7946 73.8005 88.3896 70.953 85.2342C69.8371 84.0028 67.6629 80.7897 67.7976 80.5589C67.8553 80.4819 68.3556 80.1741 68.9135 79.847C69.4523 79.5391 71.4917 78.3655 73.4157 77.2495L76.8982 75.2293L77.6293 76.3068C78.6491 77.8652 80.8809 80.0009 82.2277 80.7128C86.095 82.7522 91.4053 82.4636 94.0219 80.1163C95.1379 79.0966 95.5996 78.0384 95.5996 76.4799C95.5996 75.0754 95.4265 74.4597 94.6953 73.4015C93.7526 72.0547 91.8285 70.9195 86.3643 68.553C80.1113 65.8594 77.4177 64.1855 74.9549 61.5303C73.5312 59.9911 72.1844 57.5284 71.6264 55.4697C71.1646 53.7573 71.0492 49.4668 71.4147 47.7352C72.7038 41.6938 77.2638 37.4802 83.8439 36.2296C85.9795 35.8255 90.9435 35.9794 93.0407 36.4989Z" fill="white"/>
</svg>

<svg xmlns="http://www.w3.org/2000/svg" width="128" height="128" fill="#fff" xmlns:v="https://vecta.io/nano"><path d="M22.039 41.585L22 46.549h7.889 7.888v22.415 22.415h5.58 5.58V68.963 46.549h7.889 7.888v-4.868l-.135-5.002c-.058-.077-9.659-.115-21.299-.096l-21.183.058-.058 4.945zm71.002-5.086c3.078.77 5.426 2.136 7.58 4.368 1.116 1.193 2.771 3.367 2.906 3.886.038.154-5.234 3.694-8.428 5.676-.115.077-.577-.423-1.097-1.193-1.559-2.27-3.194-3.252-5.695-3.425-3.675-.25-6.041 1.674-6.022 4.887 0 .943.135 1.501.52 2.27.808 1.674 2.309 2.674 7.023 4.714 8.677 3.733 12.39 6.195 14.699 9.697 2.578 3.906 3.155 10.139 1.405 14.776-1.924 5.041-6.696 8.466-13.411 9.601-2.078.366-7.003.308-9.235-.096-4.868-.866-9.485-3.271-12.333-6.426-1.116-1.231-3.29-4.445-3.155-4.675.058-.077.558-.385 1.116-.712l4.502-2.597 3.483-2.02.731 1.078c1.02 1.558 3.252 3.694 4.598 4.406 3.867 2.039 9.178 1.751 11.794-.597 1.116-1.02 1.578-2.078 1.578-3.636 0-1.404-.173-2.02-.904-3.078-.943-1.347-2.867-2.482-8.331-4.849-6.253-2.694-8.947-4.367-11.409-7.023-1.424-1.539-2.77-4.002-3.328-6.061-.462-1.712-.577-6.003-.212-7.735 1.289-6.041 5.849-10.255 12.429-11.506 2.136-.404 7.1-.25 9.197.269z"/></svg>
